remix/Design/scissors-2-fill.svg

<svg viewBox="0 0 24 24" fill="currentColor" xmlns="http://www.w3.org/2000/svg"><path d="M12 14.1179L9.68347 16.4345C9.88726 16.9144 10 17.4423 10 17.9966C10 20.2058 8.20914 21.9966 6 21.9966C3.79086 21.9966 2 20.2058 2 17.9966C2 15.7875 3.79086 13.9966 6 13.9966C6.55427 13.9966 7.08222 14.1094 7.56215 14.3131L9.87868 11.9966L4.21142 6.32936C3.43037 5.54831 3.43037 4.28198 4.21142 3.50093L4.91852 2.79382L12 9.8753L19.0815 2.79382L19.7886 3.50093C20.5696 4.28198 20.5696 5.54831 19.7886 6.32936L14.1213 11.9966L16.4379 14.3131C16.9178 14.1094 17.4457 13.9966 18 13.9966C20.2091 13.9966 22 15.7875 22 17.9966C22 20.2058 20.2091 21.9966 18 21.9966C15.7909 21.9966 14 20.2058 14 17.9966C14 17.4423 14.1127 16.9144 14.3165 16.4345L12 14.1179ZM6 19.9966C7.10457 19.9966 8 19.1012 8 17.9966C8 16.892 7.10457 15.9966 6 15.9966C4.89543 15.9966 4 16.892 4 17.9966C4 19.1012 4.89543 19.9966 6 19.9966ZM18 19.9966C19.1046 19.9966 20 19.1012 20 17.9966C20 16.892 19.1046 15.9966 18 15.9966C16.8954 15.9966 16 16.892 16 17.9966C16 19.1012 16.8954 19.9966 18 19.9966Z"/></svg>

<svg viewBox="0 0 24 24" xmlns="http://www.w3.org/2000/svg"><path fill="none" d="M0 0h24v24H0Z"/><path d="M12 14.121l-2.317 2.31v0c.86 2.03-.09 4.38-2.13 5.24 -2.04.86-4.39-.09-5.25-2.13 -.87-2.04.08-4.39 2.12-5.25 .99-.43 2.12-.43 3.12 0l2.31-2.317 -5.67-5.67h0c-.79-.79-.79-2.05-.01-2.83 0-.01 0-.01 0-.01l.7-.71 7.08 7.083 7.08-7.09 .7.7v-.001c.78.78.78 2.04 0 2.82 -.01 0-.01 0-.01 0l-5.67 5.66 2.31 2.317v0c2.03-.87 4.38.08 5.24 2.12 .86 2.03-.09 4.38-2.13 5.24 -2.04.86-4.39-.09-5.25-2.13 -.43-1-.43-2.13 0-3.13l-2.32-2.32ZM6 20v0c1.1 0 2-.9 2-2 0-1.11-.9-2-2-2v0c-1.11 0-2 .89-2 2 0 1.1.89 2 2 2Zm12 0v0c1.1 0 2-.9 2-2 0-1.11-.9-2-2-2v0c-1.11 0-2 .89-2 2 0 1.1.89 2 2 2Z"/></svg>
